!!! OTL: Berkowitz120
!!! Chapter: 1
!!! Section: I
!!! Page: 28
!!! Mode: 
!!! Encoder: DJB
**kern
*staff1
*I"Piano
=1-
*clefG2
*k[b-e-a-]
*E-:
*M3/4
8g/L
8a-/J
4b-\
8g/L
8a-/J
=2
4b-\
4ee-\
8g/L
8a-/J
=3
4b-\
8g/L
8a-/J
4b-\
=4
4cc\
4b-\
8g/L
8a-/J
=5
4b-\
8g/L
8a-/J
4b-\
=6
4cc\
4ee-\
4cc\
=7
8b-/L
8a-/J
4g/
4f/
=8
4g/
2e-/
==
*-
